build/category/ItemConverterSolid.svg

<svg xmlns="http://www.w3.org/2000/svg" fill="none" viewBox="0 0 24 24" focusable="false"><path d="M0 0H24V24H0z"/><path fill="#74767B" fill-rule="evenodd" d="M20.583 6.06733C20.583 7.74209 19.2246 9.09975 17.5498 9.09975C15.9004 9.09975 14.5576 7.78151 14.5186 6.14059L11.9883 6.14059C11.776 6.13443 11.487 6.10206 11.2852 6.05328C11.0801 6.00376 10.8809 5.93227 10.6865 5.83881C10.4922 5.74561 10.3125 5.63469 10.1455 5.50607C9.96908 5.36983 9.80827 5.21373 9.66309 5.03776C9.57227 4.92831 9.41992 4.83063 9.30371 4.78178C9.21289 4.75111 9.14258 4.74989 9.09375 4.7781L7.19727 5.87351C7.14844 5.90173 7.10547 6.01408 7.08691 6.10797C7.08691 6.20432 7.09994 6.39469 7.1377 6.4958C7.2168 6.71033 7.27246 6.92822 7.30176 7.14946C7.31934 7.28145 7.32812 7.41463 7.32812 7.549C7.32812 7.62659 7.3252 7.7046 7.31934 7.783C7.30371 7.99806 7.26562 8.20673 7.20605 8.40903C7.13835 8.63715 7.04362 8.85716 6.92188 9.06903C6.79948 9.28092 6.65625 9.47299 6.49219 9.64526C6.34668 9.79797 6.18457 9.93512 6.00684 10.0567C5.8291 10.1778 5.64355 10.2782 5.44922 10.3581C5.24284 10.4429 5.02702 10.5045 4.80176 10.5428C4.66113 10.5666 4.5 10.6496 4.40039 10.7258C4.32812 10.789 4.29199 10.8488 4.29199 10.9052L4.29199 13.1693C4.29199 13.2217 4.37109 13.3156 4.43164 13.3705C4.51367 13.4302 4.611 13.4688 4.72363 13.4861C4.95996 13.5226 5.1875 13.5831 5.40527 13.6675C5.51074 13.7081 5.61328 13.7543 5.71484 13.8061C5.94043 13.9223 6.14648 14.0618 6.33301 14.2244C6.40723 14.2893 6.47754 14.3579 6.54492 14.4302C6.68164 14.5758 6.80078 14.732 6.90234 14.8988C6.98633 15.0358 7.05827 15.18 7.11816 15.3314C7.14648 15.4023 7.17188 15.4742 7.19434 15.5469C7.2832 15.8338 7.32812 16.1345 7.32812 16.4489C7.32812 16.6531 7.30762 16.8533 7.26855 17.0496C7.2373 17.2045 7.19336 17.3569 7.1377 17.5069C7.10254 17.6013 7.08789 17.7173 7.08789 17.8215C7.08789 17.8654 7.09082 17.9072 7.0957 17.9444C7.11426 18.0375 7.14746 18.0981 7.19629 18.1261L9.09473 19.2221C9.14355 19.2503 9.26172 19.2307 9.35254 19.2C9.46875 19.1512 9.57227 19.072 9.66309 18.9624C9.80892 18.7864 9.97005 18.6303 10.1465 18.494C10.3125 18.3655 10.4922 18.2546 10.6865 18.1614C10.8809 18.0681 11.0801 17.9966 11.2852 17.9471C11.4792 17.9002 11.6777 17.873 11.8809 17.8654L14.5186 17.861C14.5566 16.2195 15.8994 14.9006 17.5498 14.9006C19.2246 14.9006 20.583 16.2583 20.583 17.9331C20.583 19.6078 19.2246 20.9655 17.5498 20.9655C16.2998 20.9655 15.2266 20.2088 14.7627 19.1285C14.6982 19.1496 14.6279 19.161 14.5557 19.161L11.999 19.161C11.8525 19.161 11.7109 19.1805 11.5742 19.2152C11.4629 19.2431 11.3545 19.2825 11.25 19.3331C11.1416 19.3848 11.042 19.4462 10.9482 19.5172C10.8447 19.5967 10.75 19.6882 10.6641 19.7917C10.6201 19.8446 10.5742 19.8952 10.5254 19.9435C10.4388 20.0303 10.3444 20.1097 10.2422 20.1816C10.0768 20.2988 9.90267 20.3882 9.71973 20.4499C9.51758 20.5183 9.30078 20.5479 9.10156 20.5402C8.9668 20.5335 8.83789 20.5099 8.71387 20.4691C8.62109 20.4384 8.53125 20.398 8.44434 20.3479L6.5459 19.252C6.45898 19.2017 6.37891 19.1438 6.30566 19.0781C6.20898 18.9918 6.11426 18.877 6.04199 18.764C5.93555 18.5958 5.8623 18.4074 5.82031 18.1989C5.79492 18.0729 5.78223 17.9439 5.78223 17.8121C5.78223 17.7463 5.78613 17.6799 5.79199 17.6127C5.80371 17.4915 5.82422 17.3729 5.85449 17.2569C5.87305 17.1881 5.89453 17.1202 5.91992 17.0532C5.94824 16.9763 5.9707 16.8982 5.98828 16.8188C6.01465 16.6984 6.02734 16.5751 6.02734 16.4489C6.02734 16.1772 5.97428 15.9312 5.86816 15.7111C5.79883 15.5696 5.65625 15.3847 5.54297 15.2645C5.42057 15.145 5.27962 15.0443 5.12012 14.9625C5.08105 14.9424 5.04199 14.9237 5.00098 14.9064C4.85059 14.8419 4.69238 14.7967 4.52539 14.771C4.44531 14.7587 4.36719 14.7417 4.29004 14.7201C4.18587 14.6909 4.08398 14.6531 3.98438 14.6068C3.81445 14.5279 3.6416 14.4097 3.50684 14.291C3.37012 14.166 3.22559 13.9629 3.1416 13.809C3.08691 13.6979 3.0472 13.5838 3.02246 13.4665C3.00195 13.3696 2.99219 13.2705 2.99219 13.1693L2.99219 10.9052C2.99219 10.8053 3.00228 10.7074 3.02246 10.6116C3.04883 10.484 3.09961 10.3459 3.16211 10.2256C3.25456 10.0491 3.38118 9.89042 3.54199 9.74945C3.68652 9.62222 3.85059 9.51611 4.03516 9.43115C4.14844 9.37901 4.26465 9.33698 4.38281 9.30505C4.44922 9.28726 4.51628 9.27261 4.58398 9.2611C4.71582 9.23869 4.8418 9.20238 4.96289 9.15218C5.07129 9.10704 5.1748 9.05067 5.27344 8.98306C5.37012 8.91715 5.45898 8.84311 5.53809 8.76093C5.63672 8.65938 5.72266 8.54541 5.7959 8.41903C5.86816 8.29266 5.9248 8.16142 5.96289 8.02531C5.99414 7.91509 6.01465 7.80167 6.02344 7.68506C6.02637 7.64031 6.02832 7.59579 6.02832 7.55148C6.02832 7.47736 6.02344 7.40386 6.01367 7.33098C5.99707 7.20153 5.96582 7.07397 5.91895 6.9484C5.89453 6.88396 5.87402 6.81867 5.85645 6.75255C5.82454 6.63385 5.80306 6.51244 5.79199 6.38832C5.78613 6.32162 5.78223 6.25563 5.78223 6.19036C5.78223 6.05783 5.79492 5.92825 5.82031 5.80163C5.8623 5.59225 5.94531 5.3897 6.05176 5.22097C6.125 5.10737 6.20996 5.00721 6.30762 4.92048C6.38053 4.85529 6.46029 4.79769 6.54688 4.74768L8.44434 3.65226C8.53125 3.60227 8.62012 3.56194 8.71387 3.53125C8.83691 3.49041 8.98242 3.46597 9.11719 3.45934C9.31641 3.45157 9.51758 3.48188 9.71973 3.55027C9.90234 3.61199 10.0762 3.70145 10.2422 3.81861C10.3428 3.88982 10.4365 3.96831 10.5225 4.05407C10.5723 4.10322 10.6191 4.15475 10.6641 4.20868C10.749 4.31158 10.8438 4.40259 10.9473 4.48171C11.04 4.55326 11.1416 4.61509 11.25 4.66719C11.3555 4.71786 11.4629 4.7572 11.5742 4.7852C11.7119 4.81976 11.8535 4.83704 11.999 4.83704L14.585 4.8406C14.6475 4.8406 14.708 4.84913 14.7656 4.86513C15.2314 3.78839 16.3027 3.03491 17.5498 3.03491C19.2246 3.03491 20.583 4.39257 20.583 6.06733ZM15.3955 12.65C15.0908 14.2474 13.6875 15.455 12.001 15.455C10.0938 15.455 8.54688 13.9082 8.54688 12.0001C8.54688 10.092 10.0938 8.54517 12.001 8.54517C13.6875 8.54517 15.0908 9.75268 15.3955 11.35L19.9326 11.35C20.2969 11.35 20.582 11.636 20.582 12C20.582 12.364 20.2969 12.65 19.9326 12.65L15.3955 12.65Z"/></svg>

<svg xmlns="http://www.w3.org/2000/svg" fill="none" viewBox="0 0 24 24" focusable="false"><path fill="#74767B" fill-rule="evenodd" d="M20.58 6.06a3.03 3.03 0 0 1-3.04 3.03c-1.64 0-2.99-1.31-3.03-2.95h-2.53c-.21-.01-.5-.04-.7-.09s-.4-.12-.6-.22q-.285-.135-.54-.33a2.7 2.7 0 0 1-.48-.47c-.09-.11-.25-.2-.36-.25-.09-.03-.16-.04-.21-.01l-1.9 1.1c-.05.03-.09.14-.11.23 0 .1.01.29.05.39.08.22.14.43.17.65.01.14.02.27.02.4 0 .08 0 .16-.01.24-.01.21-.05.42-.11.62-.07.23-.16.45-.28.66-.13.22-.27.41-.43.58-.15.15-.31.29-.49.41s-.36.22-.56.3c-.2.09-.42.15-.64.19-.14.02-.3.1-.4.18-.08.06-.11.12-.11.18v2.26c0 .06.08.15.14.21.08.06.18.09.29.11.23.04.46.1.68.18.11.04.21.09.31.14.23.12.43.26.62.42q.105.09.21.21c.14.14.26.3.36.46.08.14.15.29.21.44.03.07.06.14.08.21.09.29.13.59.13.9q0 .315-.06.6c-.03.16-.07.31-.13.46-.03.1-.05.21-.05.32 0 .04.01.08.01.12.02.09.05.15.1.18l1.9 1.1c.05.03.17.01.26-.02.11-.05.22-.13.31-.24.14-.18.3-.33.48-.47q.255-.195.54-.33c.2-.1.4-.17.6-.22.19-.04.39-.07.6-.08h2.63a3.027 3.027 0 0 1 3.03-2.96 3.03 3.03 0 0 1 3.04 3.03c0 1.67-1.36 3.03-3.04 3.03-1.25 0-2.32-.76-2.78-1.84-.07.02-.14.04-.21.04h-2.56c-.14 0-.28.02-.42.05-.11.03-.22.07-.32.12-.11.05-.21.11-.31.18-.1.08-.19.17-.28.28-.04.05-.09.1-.14.15-.09.09-.18.16-.28.24-.17.11-.34.2-.53.26-.2.07-.41.1-.61.1a1.6 1.6 0 0 1-.66-.2l-1.9-1.09q-.135-.075-.24-.18a1.576 1.576 0 0 1-.48-.88c-.03-.12-.04-.25-.04-.38 0-.07 0-.14.01-.2q.015-.18.06-.36l.06-.2c.03-.08.06-.16.07-.24.03-.12.04-.24.04-.37 0-.27-.05-.51-.16-.73-.07-.15-.21-.33-.32-.45-.12-.12-.27-.22-.42-.3L5 14.9c-.15-.06-.31-.11-.48-.13-.08-.02-.16-.03-.23-.05-.11-.03-.21-.07-.31-.12-.17-.08-.34-.2-.48-.31-.13-.13-.28-.33-.36-.49-.06-.11-.1-.22-.12-.34-.02-.1-.03-.19-.03-.3V10.9c0-.1.01-.2.03-.29.02-.13.07-.27.14-.39.09-.18.22-.33.38-.48.14-.12.31-.23.49-.31.11-.06.23-.1.35-.13.06-.02.13-.03.2-.04.13-.03.26-.06.38-.11.11-.05.21-.1.31-.17s.18-.14.26-.22c.1-.11.19-.22.26-.35.07-.12.13-.25.17-.39.03-.11.05-.22.06-.34v-.13c0-.08 0-.15-.01-.22-.02-.13-.05-.26-.1-.39-.02-.06-.04-.13-.06-.19-.03-.12-.05-.24-.06-.37-.01-.06-.01-.13-.01-.19 0-.14.01-.27.04-.39.04-.21.12-.42.23-.58.07-.12.15-.22.25-.3q.12-.105.24-.18l1.9-1.09a1.6 1.6 0 0 1 .67-.2c.2 0 .4.03.6.1.19.06.36.15.53.26.1.07.19.15.28.24.05.05.09.1.14.15.08.11.18.2.28.28.1.07.2.13.31.18.1.05.21.09.32.12.14.03.28.05.42.05l2.59.01c.06 0 .12 0 .18.02a3.034 3.034 0 0 1 5.82 1.2m-5.19 6.59A3.456 3.456 0 0 1 8.54 12a3.455 3.455 0 0 1 6.85-.65h4.54c.36 0 .65.28.65.65 0 .36-.29.65-.65.65z"/></svg>
